X:1
T:Crux fidelis
T:Crux fidelis
T:Clemens non papa
T:©2008 Paul R Marchesano May be freely copied for non profit use
T:©2008 Paul R Marchesano May be freely copied for non profit use
T:©2008 Paul R Marchesano May be freely copied for non profit use
T:©2008 Paul R Marchesano May be freely copied for non profit use
T:©2008 Paul R Marchesano May be freely copied for non profit use
T:©2008 Paul R Marchesano May be freely copied for non profit use
C:Clemens non papa
Z:©2008 Paul R Marchesano May be freely copied for non profit use
%%score [ 1 2 3 4 ]
L:1/8
Q:1/4=83
M:4/4
K:Dmin
V:1 treble nm="Soprano" snm="S"
V:2 treble nm="Alto" snm="A"
V:3 treble-8 nm="Tenor" snm="T"
V:4 bass nm="Bass" snm="B"
V:1
 z4 G4 | d2 d4 c2 | d2 e2 f4- | f2 e2 d2 c2- | cB BA/G/ A4 | G2 B4 A2 | B2 A4 G2 | A4 z2 A2 | %8
w: Crux|fi- de- lis|in- ter om-|||nes, in- ter|om- * *|nes, crux|
 d2 d4 ^c2 | d2 e2 f4- | f2 e2 f2 e2- | ed d4 ^c2 | d2 A2 B2 c2 | d2 _e2 d3 c/B/ | c2 d4 ^c2 | %15
w: fi- de- lis|in- ter om-|||nes ar- bor u-|na no- * * *|* * bi-|
 d4 z4 | z8 | z2 e2 f4 | g2 e2 f3 e | d2 G2 d4 | d4 c4 | d2 f4 e2- | e2 d4 c2 | d2 e3 d d2- | %24
w: lis,||ar- bor|u- na no- *|* bi- lis,|u- na|no- * *|||
 d2 ^c2 d2 d2 | f2 e2 d2 d2 | c4 B2 A2- | A2 G4 F2 | B3 c d4 | z4 z2 e2 | f3 e d2 c2 | B2 A4 G2 | %32
w: * bi- lis, nul-|la sil- va ta-|lem _ pro-||fert, _ _|nul-|la sil- va ta-|lem pro- *|
 A4 z4 | z2 F2 G2 A2- | A2 G2 G2 ^F2 | G2 B2 c2 d2- | d2 c2 B3 A/G/ | A2 A2 GABG | A4 z4 | %39
w: fert,|fron- de, flo-|* re, ger- mi-|ne, fron- de, flo-|* re, ger- * *|* mi- ne, _ _ _|_|
 B4 c2 d2- | d2 c2 B2 G2 | A2 A2 B2 c2- | c2 B2 A2 A2 | G3 F/E/ F2 G2- | G2 ^F2 G4- | G4 z4 | %46
w: fron- de, flo-|* re, ger- mi-|ne, fron- de, flo-|* re, ger- mi-|ne, _ _ _ ger-|* mi- ne,|_|
 z4 z2 d2 | d2 e2 f3 e | d2 c2 d2 c2 | B2 A4 G2 | A2 A2 A2 B2 | c6 B2 | A2 G2 A4- | A2 B2 A2 B2- | %54
w: dul-|ce lig- num, _|_ _ dul- ces|cla- * *|vos, dul- ce lig-|num, dul-|ces cla- vos,|_ dul- ces cla-|
 BAGF G4- | G2 FE F4 | z8 | z2 B4 c2 | d6 c2 | B2 AG A2 A2 | G2 B2 c2 d2- | d2 c2 c2 B2 | %62
w: |* * * vos,||dul- ce|pon- dus|su- * * * sti-|net, dul- ce pon-|* dus su- sti-|
 A2 A2 G3 _E | F2 G4 ^F2 | G4 z2 F2 | G2 A4 G2 | G2 ^F2 G4 |] %67
w: net, su- * *|* * sti-|net, dul-|ce pon- dus|su- sti- net.|
V:2
 D4 G2 G2- | G2 F2 G2 A2 | B6 AG | F2 A4 G2 | A2 G4 ^F2 | G2 D3 E F2 | E2 F4 ED | C2 D2 A,4 | %8
w: Crux fi- de-|* lis in- ter|om- * *||nes, crux fi-|de- * * *|lis in- ter _|om- * nes|
 z2 D2 A2 A2- | A2 G2 A4- | A2 c2 B2 G2 | A2 B2 A4 | z2 F2 G4 | B6 G2 | A3 G/F/ G2 A2 | %15
w: crux fi- de-|* lis in-|* ter om- *|* * nes|ar- bor|u- na|no- * * * *|
 F2 G3 F ED | C2 D4 B,2 | C3 B, A,2 B,2 | G,4 A,2 A2 | B2 c2 A2 B2- | BA A4 G2 | A2 A2 B2 c2- | %22
w: bi- lis, _ _ _|_ u- na|no- * * *|bi- lis, ar-|bor u- na no-|* * * bi-|lis, ar- bor u-|
 c2 B2 G2 A2 | F2 B2 G4 | A4 F4 | z2 G2 B2 A2 | A2 G2 F4 | z2 G2 B2 A2 | G2 G4 F2 | E2 D4 ^C2 | %30
w: * na no- *||bi- lis,|nul- la sil-|va ta- lem|nul- la sil-|va ta- lem|pro- * *|
 D2 A2 A3 G | F2 E2 F2 D2 | E2 E2 F2 D2 | F4 E4 | D2 C2 D4 | D4 F4 | G2 A4 G2 | G2 ^F2 G2 D2 | %38
w: fert, nul- la sil-|va ta- lem pro-|fert, nul- la sil-|va ta-|lem pro- *|fert, fron-|de, flo- re,|ger- mi- ne, fron-|
 E2 F4 E2 | E2 D2 A4- | A4 D4 | E2 F4 E2 | D3 E F4 | E4 D2 C2 | D4 z2 D2- | D2 D2 E2 F2 | %46
w: de, flo- re,|ger- mi- ne,|_ fron-|de, flo- re,|ger- * *|* * mi-|ne, dul-|* ce lig- num,|
 z2 G2 G2 A2 | B2 G2 B2 A2- | A2 G2 A3 G | FE F4 ED | C2 C2 F2 F2 | E2 A4 G2 | F2 ED E4 | F4 F4 | %54
w: dul- ce _|lig- * num, dul-|* ces cla- *||vos, dul- ce lig-|num, dul- ces|cla- * * *|vos, dul-|
 G4 G,3 A, | B,2 A,2 D4 | z2 F2 G2 A2- | A2 F2 G2 A2 | B3 B B2 A2- | A2 G4 ^F2 | G4 z2 F2 | %61
w: ces cla- *|* * vos,|dul- ce pon-|* dus su- *|* sti- net, su-|* * sti-|net, dul-|
 G2 A4 G2 | E2 F2 B,2 C2 | D4 z2 D2- | D2 E2 F4 | D2 E2 FEDC | D2 D2 B,4 |] %67
w: ce pon- dus|su- * * sti-|net, dul-|* ce pon-|dus su- * * * *|* sti- net.|
V:3
 z8 | z8 | G4 d2 d2- | d2 c2 d2 e2 | f2 _e2 d4 | z2 G2 d2 d2- | d2 c2 d4 | e2 f4 e2 | f2 g2 e4 | %9
w: ||Crux fi- de-|* lis in- ter|om- * nes,|crux fi- de-|* lis in-|ter om- *||
 d2 G2 d2 d2- | d2 c2 d2 e2 | f2 g2 e4 | f4 z2 e2 | f2 g4 d2 | f3 e/d/ e2 e2 | d4 z2 e2 | f4 g3 d | %17
w: nes crux fi- de-|* lis in- ter|om- * *|nes ar-|bor u- na|no- * * * bi-|lis, ar-|bor u- na|
 f2 e3 d d2- | d2 ^c2 d4 | z2 e2 f2 g2 | d2 f4 e2 | d4 z2 e2 | f2 g2 e2 f2 | d2 g3 f ed | %24
w: no- * * *|* bi- lis,|ar- bor u-|na no- bi-|lis, ar-|bor u- na no-||
 e2 e2 d4 | z4 z2 d2 | f2 e2 d2 d2 | c4 d4 | G2 d2 d3 c | B2 A2 B2 G2 | A2 d2 f3 e | d2 c2 d2 B2 | %32
w: * bi- lis,|nul-|la sil- va ta-|lem pro-|fert, nul- la sil-|va ta- lem pro-|fert, nul- la sil-|va ta- lem pro-|
 A4 z2 B2 | c2 d4 c2 | B2 AG A2 A2 | G4 z4 | B2 c2 d2 _e2 | c2 d2 G4 | z2 f2 g2 a2- | a2 g2 f2 ed | %40
w: fert, *||||fron- de, flo- re,|ger- mi- ne,|fron- de, flo-|* re, ger- * *|
 e2 f2 g2 B2 | c2 d4 c2 | z2 B2 c2 d2- | d2 c2 B2 AG | A2 A2 G4 | z2 B2 B2 c2 | d2 d2 _e2 d2- | %47
w: * mi- ne, fron-|de, flo- re,|fron- de, flo-|* re, ger- * *|* mi- ne,|dul- ce lig-|num, dul- ces cla-|
 dB c2 d2 d2 | d2 e2 f3 e | d2 c2 B4 | A2 A2 d2 d2 | c2 f3 e d2 | c2 d4 ^c2 | d8 | z2 B4 c2 | %55
w: * * * vos, dul-|ces _ cla- *||vos, dul- ce lig-|num, dul- * *|ces cla- *|vos,|dul- ce|
 d3 c B2 A2 | G2 d4 e2 | f2 B2 d2 c2 | g3 f d2 f2 | g2 e2 d4- | d4 z4 | z4 z2 B2 | c2 d4 c2 | %63
w: pon- dus su- sti-|net, dul- ce|pon- dus su- *|* sti- net, su-|* sti- net,|_|dul-|ce pon- dus|
 B2 AG A2 A2 | G2 B2 c2 d2- | d2 c2 B2 AG | A2 A2 G4 |] %67
w: su- * * * sti-|net, dul- ce pon-|* dus su- * *|* sti- net.|
V:4
 z8 | z8 | z8 | z8 | z4 D,4 | G,2 G,4 F,2 | G,2 A,2 B,4 | A,2 D4 C2 | B,2 G,2 A,3 G, | %9
w: ||||Crux|fi- de- lis|in- ter om-|nes, crux fi-|de- lis in- ter|
 F,2 E,2 D,4 | A,4 z4 | z4 A,4 | D2 D4 C2 | B,2 G,2 B,4 | A,4 z2 A,2 | B,4 C4 | A,2 B,4 G,2 | %17
w: om- * *|nes|crux|fi- de- lis|in- ter om-|nes ar-|bor u-|na no- *|
 A,3 G, F,2 E,D, | E,4 D,4 | z8 | z8 | z4 z2 A,2- | A,2 B,2 C2 A,2 | B,2 G,2 C2 B,2 | A,4 z2 B,2 | %25
w: |bi- lis,|||ar-|* bor u- na|no- * * bi-|lis, nul-|
 B,2 C2 D4 | z4 D,4 | F,2 E,2 D,4 | z2 G,2 B,3 A, | G,2 F,2 G,2 E,2 | D,4 z4 | z4 z2 G,2 | %32
w: la sil- va,|nul-|la sil- va,|nul- la sil-|va ta- lem pro-|fert,|nul-|
 C3 B, A,2 G,2 | F,2 E,D, E,2 C,2 | D,2 E,2 D,4 | z2 G,2 A,2 B,2 | G,2 z2 z4 | z4 B,4 | C2 D4 C2 | %39
w: la sil- va ta-|lem _ _ _ pro-|* * fert,|fron- de, flo-|re,|fron-|de, flo- re,|
 B,2 A,G, A,4- | A,2 A,2 G,4 | z2 F,2 G,2 A,2- | A,2 G,2 F,2 E,D, | E,2 C,2 D,2 E,2 | D,4 z4 | %45
w: ger- * * *|* mi- ne,|fron- de, flo-|* re, ger- * *|* * * mi-|ne,|
 G,4 G,2 A,2 | B,3 A, G,2 F,2 | G,2 E,2 D,4 | z8 | D,4 D,2 E,2 | F,4 D,4 | A,4 F,2 G,2 | %52
w: dul- ce lig-|num, _ _ dul-|ces cla- vos,||dul- ce lig-|* num,|dul- ces cla-|
 A,2 B,2 A,4 | D,8 | _E,4 E,4 | D,8 | B,6 C2 | D3 C B,2 A,2 | G,4 z4 | z8 | G,4 A,2 B,2- | %61
w: * * vos,|dul-|ces cla-|vos,|dul- ce|pon- dus su- sti-|net,||dul- ce pon-|
 B,2 A,2 F,2 G,2 | A,2 D,2 _E,2 E,2 | D,8 | z2 G,2 F,2 B,2- | B,2 A,2 F,2 G,2 | D,4 G,4 |] %67
w: * dus su- sti-|net, su- * sti-|net,|dul- ce pon-|* dus su- *|sti- net.|

